X:1
T:Brassey Hornpipe
%Second Earl Lord Brassey was governor of Victoria and leading proponent of Federation%
C:Anonymous 1897 
Z: Stephen Hamish DARBY 
O:Allan's Album No. 37 Melbourne, Australia 
O:https://trove.nla.gov.au/work/15781307
L:1/16
M:2/4
R:H
K:C
ed| c2G2 G2dc | BcdB c2cd | efge defd | cdec dGed | 
c2G2 G2dc | BcdB c2de | dgBe dcAB | G2G2G2AB | 
cBcd ecde | f2F2 F2de | fefg afdc | B2g2 g2gf | 
efec facf | egce facf | egce fdcB | c2c2c2:|
